casedrop/img/icons/media/vk.svg

<svg width="27" height="16" viewBox="0 0 27 16" fill="none" xmlns="http://www.w3.org/2000/svg">
<path d="M16.4432 7.76574C15.9745 7.58949 15.9745 6.91637 15.9454 6.44762C15.8282 4.77793 16.4142 2.22887 15.711 1.14512C15.2132 0.500117 12.8104 0.559179 11.346 0.647304C10.9354 0.706367 10.4376 0.793555 10.086 0.969805C9.73448 1.14605 9.38292 1.43855 9.38292 1.70199C9.38292 2.08262 10.2623 2.02449 10.5839 2.5223C10.9354 3.05012 10.9354 4.19199 10.9354 5.12949C10.9354 6.21324 10.7592 7.64949 10.3204 7.70762C9.64636 7.73668 9.26573 7.06262 8.91417 6.5648C8.21104 5.59824 7.50792 4.39637 6.98011 3.22449C6.71667 2.60949 6.56948 1.93543 6.18886 1.67199C5.60292 1.26137 4.54823 1.2323 3.52261 1.26137C2.58511 1.29043 1.23698 1.17324 0.973545 1.73012C0.768232 2.34512 1.20792 2.93105 1.44229 3.4298C2.64323 6.03699 3.93229 8.32262 5.51479 10.4901C6.98011 12.5114 8.35636 14.1229 11.0517 14.9723C11.8139 15.2067 15.1532 15.8807 15.8273 14.9723C16.0617 14.6207 16.0035 13.8295 16.1207 13.2436C16.2379 12.6576 16.3842 12.0717 16.941 12.0426C17.4098 12.0136 17.6732 12.4232 17.9667 12.7167C18.2892 13.0392 18.5526 13.3026 18.787 13.5961C19.3439 14.1529 19.9298 14.9142 20.6329 15.2076C21.5995 15.6182 23.0939 15.5011 24.5001 15.442C25.6429 15.4129 26.4632 15.1786 26.5514 14.5045C26.6104 13.9767 26.0235 13.2154 25.672 12.7757C24.7926 11.692 24.3829 11.3695 23.3864 10.3729C22.9467 9.93324 22.3898 9.46449 22.3898 8.93762C22.3607 8.61512 22.6242 8.32262 22.8585 8.00012C23.8842 6.47668 24.9098 5.39293 25.8473 3.81043C26.1107 3.34168 26.7267 2.25793 26.4923 1.73012C26.2289 1.14418 24.7635 1.31949 23.8551 1.31949C22.6832 1.31949 21.1598 1.23137 20.8664 1.46574C20.3095 1.84637 20.0751 2.4623 19.8117 3.04824C19.2257 4.39637 18.4345 5.77262 17.6142 6.79824C17.3207 7.1498 16.7648 7.88199 16.4423 7.7648L16.4432 7.76574Z" fill="#393F4F"/>
</svg>

<svg width="27" height="16" fill="none" xmlns="http://www.w3.org/2000/svg"><path d="M16.443 7.766c-.469-.177-.469-.85-.498-1.318-.117-1.67.47-4.22-.234-5.303-.498-.645-2.9-.586-4.365-.498-.41.06-.908.147-1.26.323-.352.176-.703.469-.703.732 0 .38.88.322 1.2.82.352.528.352 1.67.352 2.607 0 1.084-.176 2.52-.615 2.579-.674.029-1.054-.645-1.406-1.143a19.547 19.547 0 01-1.934-3.34c-.263-.616-.41-1.29-.791-1.553-.586-.41-1.64-.44-2.666-.41-.938.028-2.286-.089-2.55.468-.205.615.235 1.201.47 1.7 1.2 2.607 2.49 4.893 4.072 7.06 1.465 2.021 2.841 3.633 5.537 4.482.762.235 4.101.909 4.775 0 .235-.351.176-1.143.294-1.728.117-.586.263-1.172.82-1.201.469-.03.732.38 1.026.674.322.322.586.586.82.88.557.556 1.143 1.317 1.846 1.61.966.411 2.46.294 3.867.235 1.143-.03 1.963-.263 2.051-.938.06-.527-.527-1.289-.879-1.728-.88-1.084-1.29-1.406-2.286-2.403-.44-.44-.996-.909-.996-1.435-.03-.323.234-.615.468-.938 1.026-1.523 2.052-2.607 2.99-4.19.263-.468.879-1.552.644-2.08-.263-.586-1.729-.41-2.637-.41-1.172 0-2.695-.089-2.989.146-.556.38-.79.996-1.054 1.582-.586 1.348-1.378 2.725-2.198 3.75-.293.352-.85 1.084-1.172.967h.001z" fill="#393F4F"/></svg>
